Numix-GalliumOS/48/devices/media-tape.svg

<?xml version="1.0" encoding="UTF-8" standalone="no"?>
<svg
   xmlns:dc="http://purl.org/dc/elements/1.1/"
   xmlns:cc="http://creativecommons.org/ns#"
   xmlns:rdf="http://www.w3.org/1999/02/22-rdf-syntax-ns#"
   xmlns:svg="http://www.w3.org/2000/svg"
   xmlns="http://www.w3.org/2000/svg"
   xmlns:sodipodi="http://sodipodi.sourceforge.net/DTD/sodipodi-0.dtd"
   xmlns:inkscape="http://www.inkscape.org/namespaces/inkscape"
   viewBox="0 0 48 48"
   id="svg2"
   version="1.1"
   inkscape:version="0.91 r"
   sodipodi:docname="media-tape.svg">
  <metadata
     id="metadata12">
    <rdf:RDF>
      <cc:Work
         rdf:about="">
        <dc:format>image/svg+xml</dc:format>
        <dc:type
           rdf:resource="http://purl.org/dc/dcmitype/StillImage" />
      </cc:Work>
    </rdf:RDF>
  </metadata>
  <defs
     id="defs10" />
  <sodipodi:namedview
     pagecolor="#ffffff"
     bordercolor="#666666"
     borderopacity="1"
     objecttolerance="10"
     gridtolerance="10"
     guidetolerance="10"
     inkscape:pageopacity="0"
     inkscape:pageshadow="2"
     inkscape:window-width="1920"
     inkscape:window-height="1056"
     id="namedview8"
     showgrid="true"
     inkscape:zoom="13.906433"
     inkscape:cx="33.058954"
     inkscape:cy="19.704645"
     inkscape:window-x="0"
     inkscape:window-y="24"
     inkscape:window-maximized="1"
     inkscape:current-layer="svg2">
    <inkscape:grid
       type="xygrid"
       id="grid4151" />
  </sodipodi:namedview>
  <circle
     style="opacity:1;fill:#262626;fill-opacity:1;fill-rule:nonzero;stroke:none;stroke-width:2;stroke-linecap:round;stroke-linejoin:miter;stroke-miterlimit:4;stroke-dasharray:none;stroke-dashoffset:0;stroke-opacity:1"
     id="path4176"
     cx="18"
     cy="24.5"
     r="7" />
  <circle
     r="6"
     cy="24.5"
     cx="30"
     id="circle4187"
     style="opacity:1;fill:#262626;fill-opacity:1;fill-rule:nonzero;stroke:none;stroke-width:2;stroke-linecap:round;stroke-linejoin:miter;stroke-miterlimit:4;stroke-dasharray:none;stroke-dashoffset:0;stroke-opacity:1" />
  <circle
     style="opacity:1;fill:#ffffff;fill-opacity:1;fill-rule:nonzero;stroke:none;stroke-width:2;stroke-linecap:round;stroke-linejoin:miter;stroke-miterlimit:4;stroke-dasharray:none;stroke-dashoffset:0;stroke-opacity:1"
     id="path4189"
     cx="18"
     cy="24.5"
     r="3" />
  <circle
     r="3"
     cy="24.5"
     cx="30"
     id="circle4191"
     style="opacity:1;fill:#ffffff;fill-opacity:1;fill-rule:nonzero;stroke:none;stroke-width:2;stroke-linecap:round;stroke-linejoin:miter;stroke-miterlimit:4;stroke-dasharray:none;stroke-dashoffset:0;stroke-opacity:1" />
  <path
     style="opacity:1;fill:#838488;fill-opacity:1;fill-rule:nonzero;stroke:none;stroke-width:2;stroke-linecap:round;stroke-linejoin:miter;stroke-miterlimit:4;stroke-dasharray:none;stroke-dashoffset:0;stroke-opacity:1"
     d="M 5.1764706,13 C 4.5247059,13 4,13.545111 4,14.222223 L 4,33.777777 C 4,34.454889 4.5247059,35 5.1764706,35 L 42.823529,35 C 43.475294,35 44,34.454889 44,33.777777 L 44,14.222223 C 44,13.545111 43.475294,13 42.823529,13 L 5.1764706,13 Z m 2.6838234,6.111111 9.080882,0 0,11.000001 -9.080882,0 -0.349265,-0.611111 c -1.5444361,-3.025255 -1.5444361,-6.752522 0,-9.777778 0.109677,-0.208534 0.22618,-0.41238 0.349265,-0.611111 z m 23.19853,0 9.080882,0 0.349265,0.611112 c 1.544436,3.025255 1.544436,6.752522 0,9.777777 -0.109677,0.208535 -0.22618,0.412379 -0.349265,0.611112 l -9.080882,0 0,-11.000001 z"
     id="rect4155"
     inkscape:connector-curvature="0" />
  <path
     style="fill:#383838;fill-opacity:1;fill-rule:evenodd;stroke:none;stroke-width:1px;stroke-linecap:butt;stroke-linejoin:miter;stroke-opacity:1"
     d="m 4,19 1.9661017,0 0,-4 L 42,15 l 0,4 2,0 0,-6 -40,0 z"
     id="path4153"
     inkscape:connector-curvature="0"
     sodipodi:nodetypes="ccccccccc" />
  <rect
     style="opacity:1;fill:#fffcd3;fill-opacity:1;fill-rule:nonzero;stroke:none;stroke-width:2;stroke-linecap:round;stroke-linejoin:miter;stroke-miterlimit:4;stroke-dasharray:none;stroke-dashoffset:0;stroke-opacity:1"
     id="rect4195"
     width="12"
     height="10"
     x="18"
     y="20"
     rx="0.60000002"
     ry="0.71428567" />
  <rect
     style="opacity:1;fill:#f57979;fill-opacity:1;fill-rule:nonzero;stroke:none;stroke-width:2;stroke-linecap:round;stroke-linejoin:miter;stroke-miterlimit:4;stroke-dasharray:none;stroke-dashoffset:0;stroke-opacity:1"
     id="rect4193"
     width="12"
     height="2"
     x="18"
     y="19"
     rx="0.59999996"
     ry="0.5" />
  <path
     style="opacity:0.51399997;fill:#bcbcbc;fill-opacity:1;fill-rule:nonzero;stroke:none;stroke-width:2;stroke-linecap:round;stroke-linejoin:miter;stroke-miterlimit:4;stroke-dasharray:none;stroke-dashoffset:0;stroke-opacity:1"
     d="m 37,13 0,6.111328 3,0 L 40,13 37,13 Z M 37,30.111328 37,35 l 3,0 0,-4.888672 -3,0 z"
     id="rect4171"
     inkscape:connector-curvature="0" />
</svg>

<svg xmlns="http://www.w3.org/2000/svg" viewBox="0 0 48 48">
 <circle cx="18" cy="24.5" r="7" style="fill:#262626;opacity:1;fill-opacity:1;stroke:none;fill-rule:nonzero"/>
 <circle r="6" cy="24.5" cx="30" style="fill:#262626;opacity:1;fill-opacity:1;stroke:none;fill-rule:nonzero"/>
 <circle cx="18" cy="24.5" r="3" style="fill:#fff;opacity:1;fill-opacity:1;stroke:none;fill-rule:nonzero"/>
 <circle r="3" cy="24.5" cx="30" style="fill:#fff;opacity:1;fill-opacity:1;stroke:none;fill-rule:nonzero"/>
 <path d="m 5.176 13 c -0.652 0 -1.176 0.545 -1.176 1.222 l 0 19.556 c 0 0.677 0.525 1.222 1.176 1.222 l 37.647 0 c 0.652 0 1.176 -0.545 1.176 -1.222 l 0 -19.556 c 0 -0.677 -0.525 -1.222 -1.176 -1.222 l -37.647 0 m 2.684 6.111 9.08 0 0 11 -9.08 0 -0.349 -0.611 c -1.544 -3.03 -1.544 -6.753 0 -9.778 0.11 -0.209 0.226 -0.412 0.349 -0.611 z m 23.2 0 9.08 0 0.349 0.611 c 1.544 3.03 1.544 6.753 0 9.778 -0.11 0.209 -0.226 0.412 -0.349 0.611 l -9.08 0 0 -11 z" style="fill:#838488;opacity:1;fill-opacity:1;stroke:none;fill-rule:nonzero"/>
 <path d="m 4 19 1.966 0 0 -4 l 36.03 0 l 0 4 2 0 0 -6 -40 0 z" style="fill:#383838;fill-opacity:1;stroke:none;fill-rule:evenodd"/>
 <rect width="12" height="10" x="18" y="20" rx="0.6" ry="0.714" style="fill:#fffcd3;opacity:1;fill-opacity:1;stroke:none;fill-rule:nonzero"/>
 <rect width="12" height="2" x="18" y="19" rx="0.6" ry="0.5" style="fill:#f57979;opacity:1;fill-opacity:1;stroke:none;fill-rule:nonzero"/>
 <path d="m 37 13 0 6.111 3 0 l 0 -6.111 -3 0 m 0 17.11 0 4.889 l 3 0 0 -4.889 -3 0 z" style="fill:#bcbcbc;opacity:0.514;fill-opacity:1;stroke:none;fill-rule:nonzero"/>
</svg>
